X:1
T:Buchimish
T:Bucimis
R:buchimish
O:Bulgaria
M:2+2+2+2+3+2+2/16
L:1/16
Q:1/8=220
K:Ador
|: A2de eAeA e2d dcde | cEBE cEBE GFG A2AE :|
|: cEBE cEBE GFG ABcd | cEBE cEBE GFG A2AE :|
|: cddB cABG A2B c2cG | cddB cABG A2d A2A2 :|
|: FGAB cEBE GFG AAAD | cEBE cEBE GFG AAAD |
FGAB cEBE GFG AAAD | cEBE cEBE GFG AAA2 :|
|: AE~G2 AE~G2 EFG A2AE | A^c_BA AEG2 EFG A2AE |
AE~G2 AE~G2 EFG A2AE | A^c_BA AEG2 EFG A2A2 :|

